assets/svg/stock-transfer-o.svg

<?xml version="1.0" encoding="UTF-8"?>
<svg width="1000px" height="1000px" viewBox="0 0 1000 1000" version="1.1" xmlns="http://www.w3.org/2000/svg" xmlns:xlink="http://www.w3.org/1999/xlink">
    <!-- Generator: sketchtool 52.4 (67378) - http://www.bohemiancoding.com/sketch -->
    <title>stock-transfer-o</title>
    <desc>Created with sketchtool.</desc>
    <g id="新版图标" stroke="none" stroke-width="1" fill="none" fill-rule="evenodd">
        <g id="stock-transfer-o" fill="#333333" fill-rule="nonzero">
            <g id="直角-库存调拨">
                <path d="M166.666667,318.095799 L166.666667,830.371447 L833.333333,830.371447 L833.333333,318.095799 L500,166.666667 L166.666667,318.095799 Z M722.222222,885.927002 L722.222222,830.371447 L277.777778,830.371447 L277.777778,885.927002 L166.666667,885.927002 C135.984181,885.927002 111.111111,861.053933 111.111111,830.371447 L111.111111,318.095799 C111.111111,296.305747 123.849571,276.527513 143.688432,267.514968 L477.021766,116.085835 C491.622579,109.45287 508.377421,109.45287 522.978234,116.085835 L856.311568,267.514968 C876.150429,276.527513 888.888889,296.305747 888.888889,318.095799 L888.888889,830.371447 C888.888889,861.053933 864.015819,885.927002 833.333333,885.927002 L722.222222,885.927002 Z M305.555556,441.482558 L361.111111,441.482558 L361.111111,719.260336 L305.555556,719.260336 L305.555556,441.482558 Z M638.888889,608.149225 L638.888889,385.927002 L694.444444,385.927002 L694.444444,608.149225 L777.777778,608.149225 L666.666667,719.260336 L555.555556,608.149225 L638.888889,608.149225 Z M333.333333,385.927002 L444.444444,497.038113 L222.222222,497.038113 L333.333333,385.927002 Z" id="直角-库存调拨－线"></path>
            </g>
        </g>
    </g>
</svg>

<svg width="1000" height="1000" xmlns="http://www.w3.org/2000/svg"><path d="M166.667 318.096V830.37h666.666V318.096L500 166.666l-333.333 151.43zm555.555 567.831v-55.556H277.778v55.556H166.667c-30.683 0-55.556-24.873-55.556-55.556V318.096a55.556 55.556 0 0 1 32.577-50.581l333.334-151.43a55.556 55.556 0 0 1 45.956 0l333.334 151.43a55.556 55.556 0 0 1 32.577 50.58v512.276c0 30.683-24.873 55.556-55.556 55.556h-111.11zM305.556 441.483h55.555V719.26h-55.555V441.483zm333.333 166.666V385.927h55.555v222.222h83.334L666.667 719.26 555.556 608.15h83.333zM333.333 385.927l111.111 111.111H222.222l111.111-111.111z" fill="#333" fill-rule="nonzero"/></svg>
